packages/icons/svg/Fill/film.svg

<svg fill="none" height="24" viewBox="0 0 24 24" width="24" xmlns="http://www.w3.org/2000/svg"><path clip-rule="evenodd" d="m19 18.2561c0 .41-.334.744-.744.744h-1.256v-2h2zm-13.99998 0v-1.256h2v2h-1.256c-.41 0-.744-.334-.744-.744zm.744-13.25603h1.256v1.99999h-2v-1.256c0-.41.334-.74399.744-.74399zm13.25598.74399v1.256h-2v-1.99999h1.256c.41 0 .744.33399.744.74399zm-2 9.25584h2v-2h-2zm0-3.9999h2v-2h-2zm-11.99998 3.9999h2v-2h-2zm0-3.9999h2v-2h-2zm13.25598-8h-12.512c-1.513 0-2.744 1.232-2.744 2.744v12.512c0 1.513 1.231 2.744 2.744 2.744h12.512c1.513 0 2.744-1.231 2.744-2.744v-12.512c0-1.512-1.231-2.744-2.744-2.744z" fill="#6b7280" fill-rule="evenodd"/></svg>

<svg width="24" height="24" viewBox="0 0 24 24" fill="none" xmlns="http://www.w3.org/2000/svg">
<g id="Icon/Fill/film">
<path id="Mask" fill-rule="evenodd" clip-rule="evenodd" d="M19 18.2559C19 18.6659 18.666 18.9999 18.256 18.9999H17V16.9999H19V18.2559ZM5 18.2559V16.9999H7V18.9999H5.744C5.334 18.9999 5 18.6659 5 18.2559ZM5.744 4.99989H7V6.99989H5V5.74389C5 5.33389 5.334 4.99989 5.744 4.99989ZM19 5.74389V6.99989H17V4.99989H18.256C18.666 4.99989 19 5.33389 19 5.74389ZM17 14.9999H19V12.9999H17V14.9999ZM17 10.9999H19V8.99989H17V10.9999ZM5 14.9999H7V12.9999H5V14.9999ZM5 10.9999H7V8.99989H5V10.9999ZM18.256 2.99989H5.744C4.231 2.99989 3 4.23189 3 5.74389V18.2559C3 19.7689 4.231 20.9999 5.744 20.9999H18.256C19.769 20.9999 21 19.7689 21 18.2559V5.74389C21 4.23189 19.769 2.99989 18.256 2.99989Z" fill="#000000"/>
</g>
</svg>
